X:11608
T:Mi(d)l, wennst was Gassl gihst-Landla
B:"Alt-Egerlnder Tnze", E. Baumann
Z:abc transcription Simon Wascher
N:please mail errors to simon.wascher@chello.at
M:3/4
L:1/4
K:C
G/>c/cc/c/|Bdd|G/>d/dd|c/>e/e2|
G/>e/ee|d/f/f/a/a|g>fB/B/|d/>c/c2:|
|:G/c/e/G/c/e/|e/g/d>z|G/>c/e/>G/c/>e/|e/>g/d>z|
d/e/f/a/g/f/|ec/e/g|G/B/d/f/e/d/|ec/e/g|
G/>B/d/>a/g/>f/|ec/e/g|G/>B/d/>f/e/>B/|B/>d/c2|
G/>B/d/>f/e/>d/|ec/>e/g|G/>B/d/>f/e/>d/|ec/>e/g|
G/>B/d/>a/g/>f/|ec/>e/g|G/>B/d/>f/e/>d/|dcc:|
|:c/e/g>e|d/e/fg|eag|c/e/g>e|
d/e/fg|e2z|d/^c/d/^c/d/e/|gfd|
e/^d/e/^d/e/f/|ag/c'/e|c/e/g>e|d/e/fg|
eag|c/e/g>e|d/e/fg|e2z:|
